source/images/icons/icon-editorial/permis-chien.svg

<?xml version="1.0" encoding="UTF-8"?>
<svg width="80px" height="80px" viewBox="0 0 80 80" version="1.1" xmlns="http://www.w3.org/2000/svg" xmlns:xlink="http://www.w3.org/1999/xlink">
    <!-- Generator: Sketch 55.2 (78181) - https://sketchapp.com -->
    <title>Illustrative Icons/Permis-Chien</title>
    <desc>Created with Sketch.</desc>
    <g id="Illustrative-Icons/Permis-Chien" stroke="none" stroke-width="1" fill="none" fill-rule="evenodd">
        <path d="M52.0000001,32 C52.0000001,31.0833334 52.7500001,30.3333334 53.6666667,30.3333334 L63.6666667,30.3333334 C64.5833334,30.3333334 65.3333334,31.0833334 65.3333334,32 C65.3333334,32.9166667 64.5833334,33.6666667 63.6666667,33.6666667 L53.6666667,33.6666667 C52.7500001,33.6666667 52.0000001,32.9166667 52.0000001,32 Z M53.6666667,42 L60.3333334,42 C61.2500001,42 62.0000001,41.25 62.0000001,40.3333334 C62.0000001,39.4166667 61.2500001,38.6666667 60.3333334,38.6666667 L53.6666667,38.6666667 C52.7500001,38.6666667 52.0000001,39.4166667 52.0000001,40.3333334 C52.0000001,41.25 52.7500001,42 53.6666667,42 Z M53.6666667,50.3333334 L62.0000001,50.3333334 C62.9166667,50.3333334 63.6666667,49.5833334 63.6666667,48.6666667 C63.6666667,47.75 62.9166667,47 62.0000001,47 L53.6666667,47 C52.7500001,47 52.0000001,47.75 52.0000001,48.6666667 C52.0000001,49.5833334 52.7500001,50.3333334 53.6666667,50.3333334 Z M8.66666667,20.3333333 C9.58333334,20.3333333 10.3333333,19.5833333 10.3333333,18.6666667 C10.3333333,17.75 9.58333334,17 8.66666667,17 C7.75,17 7,17.75 7,18.6666667 C7,19.5833333 7.75,20.3333333 8.66666667,20.3333333 Z M25.3333334,42 C26.25,42 27,41.25 27,40.3333334 L27,38.6666667 C27,37.75 26.25,37 25.3333334,37 C24.4166667,37 23.6666667,37.75 23.6666667,38.6666667 L23.6666667,40.3333334 C23.6666667,41.25 24.4166667,42 25.3333334,42 Z M35.3333334,42 C36.25,42 37,41.25 37,40.3333334 L37,38.6666667 C37,37.75 36.25,37 35.3333334,37 C34.4166667,37 33.6666667,37.75 33.6666667,38.6666667 L33.6666667,40.3333334 C33.6666667,41.25 34.4166667,42 35.3333334,42 Z M30.3333334,47.0333334 C31.25,47.0333334 32,46.2833334 32,45.3666667 C32,44.45 31.25,43.7 30.3333334,43.7 C29.4166667,43.7 28.6666667,44.45 28.6666667,45.3666667 C28.6666667,46.2833334 29.4,47.0333334 30.3333334,47.0333334 Z M68.6666667,17 L15.35,17 C14.4333333,17 13.6833333,17.75 13.6833333,18.6666667 C13.6833333,19.5833333 14.4333333,20.3333333 15.35,20.3333333 L68.6666667,20.3333333 C69.5833334,20.3333333 70.3333334,21.0833333 70.3333334,22 L70.3333334,58.6666667 C70.3333334,59.5833334 69.5833334,60.3333334 68.6666667,60.3333334 L12,60.3333334 C11.0833333,60.3333334 10.3333333,59.5833334 10.3333333,58.6666667 L10.3333333,28.6666667 C10.3333333,27.75 9.58333334,27 8.66666667,27 C7.75,27 7,27.75 7,28.6666667 L7,58.6666667 C7,61.4166667 9.25,63.6666667 12,63.6666667 L68.6666667,63.6666667 C71.4166667,63.6666667 73.6666667,61.4166667 73.6666667,58.6666667 L73.6666667,22 C73.6666667,19.25 71.4166667,17 68.6666667,17 Z M13.6666667,48.6666667 L13.6666667,40.3333334 C13.6666667,31.15 21.15,23.6666667 30.3333334,23.6666667 C39.5166667,23.6666667 47,31.15 47,40.3333334 L47,48.6666667 C47,50.9666667 45.1333334,52.8333334 42.8333334,52.8333334 C41.7666667,52.8333334 40.7833334,52.4333334 40.05,51.7666667 C37.9666667,54.9166667 34.3833334,57 30.3333334,57 C26.2833334,57 22.7,54.9166667 20.6166667,51.7666667 C19.8666667,52.4333334 18.9,52.8333334 17.8333333,52.8333334 C15.5333333,52.8333334 13.6666667,50.9666667 13.6666667,48.6666667 Z M17,48.6666667 C17,49.1333334 17.3666667,49.5 17.8333333,49.5 C18.3,49.5 18.6666667,49.1333334 18.6666667,48.6666667 L18.6666667,40.3333334 C18.6666667,39.4166667 19.4166667,38.6666667 20.3333334,38.6666667 C21.25,38.6666667 22,39.4166667 22,40.3333334 L22,45.3333334 C22,49.9333334 25.7333334,53.6666667 30.3333334,53.6666667 C34.9333334,53.6666667 38.6666667,49.9333334 38.6666667,45.3333334 L38.6666667,40.3333334 C38.6666667,39.4166667 39.4166667,38.6666667 40.3333334,38.6666667 C41.25,38.6666667 42,39.4166667 42,40.3333334 L42,48.6666667 C42,49.1333334 42.3666667,49.5 42.8333334,49.5 C43.3,49.5 43.6666667,49.1333334 43.6666667,48.6666667 L43.6666667,40.3333334 C43.6666667,32.9833334 37.6833334,27 30.3333334,27 C22.9833334,27 17,32.9833334 17,40.3333334 L17,48.6666667 Z" id="Shape-color" fill="#ADB5BD"></path>
    </g>
</svg>

<svg width="80" height="80">
    <title>
        Illustrative Icons/Permis-Chien
    </title>
    <path d="M52 32c0-.917.75-1.667 1.667-1.667h10c.916 0 1.666.75 1.666 1.667s-.75 1.667-1.666 1.667h-10C52.75 33.667 52 32.917 52 32zm1.667 10h6.666C61.25 42 62 41.25 62 40.333c0-.916-.75-1.666-1.667-1.666h-6.666c-.917 0-1.667.75-1.667 1.666 0 .917.75 1.667 1.667 1.667zm0 8.333H62c.917 0 1.667-.75 1.667-1.666 0-.917-.75-1.667-1.667-1.667h-8.333C52.75 47 52 47.75 52 48.667c0 .916.75 1.666 1.667 1.666zm-45-30c.916 0 1.666-.75 1.666-1.666 0-.917-.75-1.667-1.666-1.667C7.75 17 7 17.75 7 18.667c0 .916.75 1.666 1.667 1.666zM25.333 42C26.25 42 27 41.25 27 40.333v-1.666C27 37.75 26.25 37 25.333 37c-.916 0-1.666.75-1.666 1.667v1.666c0 .917.75 1.667 1.666 1.667zm10 0C36.25 42 37 41.25 37 40.333v-1.666C37 37.75 36.25 37 35.333 37c-.916 0-1.666.75-1.666 1.667v1.666c0 .917.75 1.667 1.666 1.667zm-5 5.033c.917 0 1.667-.75 1.667-1.666 0-.917-.75-1.667-1.667-1.667-.916 0-1.666.75-1.666 1.667a1.66 1.66 0 0 0 1.666 1.666zM68.667 17H15.35c-.917 0-1.667.75-1.667 1.667 0 .916.75 1.666 1.667 1.666h53.317c.916 0 1.666.75 1.666 1.667v36.667c0 .916-.75 1.666-1.666 1.666H12c-.917 0-1.667-.75-1.667-1.666v-30c0-.917-.75-1.667-1.666-1.667C7.75 27 7 27.75 7 28.667v30c0 2.75 2.25 5 5 5h56.667c2.75 0 5-2.25 5-5V22c0-2.75-2.25-5-5-5zm-55 31.667v-8.334c0-9.183 7.483-16.666 16.666-16.666C39.517 23.667 47 31.15 47 40.333v8.334a4.168 4.168 0 0 1-6.95 3.1A11.648 11.648 0 0 1 30.333 57c-4.05 0-7.633-2.083-9.716-5.233a4.168 4.168 0 0 1-6.95-3.1zm3.333 0c0 .466.367.833.833.833a.825.825 0 0 0 .834-.833v-8.334c0-.916.75-1.666 1.666-1.666.917 0 1.667.75 1.667 1.666v5c0 4.6 3.733 8.334 8.333 8.334s8.334-3.734 8.334-8.334v-5c0-.916.75-1.666 1.666-1.666.917 0 1.667.75 1.667 1.666v8.334c0 .466.367.833.833.833a.825.825 0 0 0 .834-.833v-8.334c0-7.35-5.984-13.333-13.334-13.333S17 32.983 17 40.333v8.334z" fill="#ADB5BD" fill-rule="evenodd"/>
</svg>
